;FLAVOR:Marlin
;TIME:232
;Filament used: 0.111071m
;Layer height: 1
;MINX:2.657
;MINY:4.26
;MINZ:1
;MAXX:28.886
;MAXY:18.67
;MAXZ:19
;Generated with Cura_SteamEngine 5.2.1
M105
M109 S0
M82 ;absolute extrusion mode
M82 ;absolute extrusion mode
G21;
G90;
M82;
M107;
G92 E0 X0 Y0 Z0;
G1 F50 E0.5;
G92 E0;
G92 E0
G92 E0
G92 E0
G92 E0
G1 F3000 E-5
;LAYER_COUNT:19
;LAYER:0
M107
G0 X4.537 Y5.657 Z1
;TYPE:SKIRT
G1 F3000 E0
G1 F600 X5.007 Y5.39 E0.0339
G1 X5.755 Y5.115 E0.08389
G1 X6.351 Y4.969 E0.12238
G1 X7.535 Y4.867 E0.19692
G1 X15.794 Y4.298 E0.71617
G1 X16.601 Y4.26 E0.76684
G1 X17.584 Y4.268 E0.8285
G1 X18.667 Y4.415 E0.89705
G1 X19.2 Y4.518 E0.9311
G1 X20.028 Y4.752 E0.98507
G1 X20.726 Y5.007 E1.03168
G1 X21.511 Y5.345 E1.08529
G1 X22.426 Y5.876 E1.15164
G1 X23.401 Y6.57 E1.22671
G1 X24.3 Y7.408 E1.30379
G1 X24.754 Y7.928 E1.34709
G1 X25.173 Y8.469 E1.39001
G1 X25.734 Y9.309 E1.45337
G1 X26.048 Y9.935 E1.49729
G1 X26.215 Y10.448 E1.53113
G1 X26.305 Y10.98 E1.56497
G1 X26.308 Y11.716 E1.61114
G1 X26.247 Y12.252 E1.64497
G1 X26.039 Y12.99 E1.69307
G1 X25.593 Y13.873 E1.75511
G1 X24.965 Y14.767 E1.82364
G1 X24.05 Y15.778 E1.90917
G1 X23.516 Y16.272 E1.95479
G1 X22.569 Y16.967 E2.02847
G1 X21.772 Y17.441 E2.08663
G1 X21.271 Y17.69 E2.12173
G1 X20.63 Y17.966 E2.1655
G1 X19.583 Y18.323 E2.23488
G1 X18.693 Y18.51 E2.29192
G1 X17.794 Y18.641 E2.34891
G1 X17.258 Y18.669 E2.38257
G1 X16.681 Y18.67 E2.41876
G1 X15.445 Y18.61 E2.49638
G1 X7.256 Y18.045 E3.01123
G1 X6.548 Y17.986 E3.0558
G1 X6.015 Y17.902 E3.08964
G1 X5.278 Y17.66 E3.13829
G1 X4.637 Y17.332 E3.18346
G1 X4.199 Y17.016 E3.21733
G1 X3.811 Y16.64 E3.25122
G1 X3.345 Y16.014 E3.30017
G1 X3.015 Y15.377 E3.34517
G1 X2.767 Y14.604 E3.39609
G1 X2.657 Y13.728 E3.45146
G1 X2.657 Y9.839 E3.69539
G1 X2.666 Y9.234 E3.73334
G1 X2.726 Y8.573 E3.77497
G1 X2.881 Y7.932 E3.81633
G1 X3.084 Y7.432 E3.85018
G1 X3.432 Y6.825 E3.89407
G1 X3.741 Y6.383 E3.92789
G1 X4.112 Y5.99 E3.96179
G1 X4.499 Y5.687 E3.99262
G0 F540 X4.537 Y5.657
G1 F3000 E-1.00738
;MESH:3DBenchy.stl
G0 X7.171 Y9.417
G0 X17.252 Y12.914
;TYPE:FILL
G1 F3000 E3.99262
G1 F600 X18.085 Y12.766 E4.04569
G1 X18.622 Y12.581 E4.08131
G1 X19.011 Y12.397 E4.1083
G1 X19.496 Y12.098 E4.14404
G1 X19.907 Y11.781 E4.17659
G1 X20.219 Y11.448 E4.20522
G1 X19.711 Y10.995 E4.24791
G1 X19.048 Y10.535 E4.29852
G1 X18.31 Y10.236 E4.34847
G1 X17.729 Y10.082 E4.38617
G1 X17.264 Y10.009 E4.41569
G1 X16.773 Y9.995 E4.4465
G1 X14.52 Y10.15 E4.58815
G1 F540.2 X13.884 Y10.339 E4.63437
G1 F450.1 X13.247 Y10.528 E4.68993
G1 F420.5 X12.592 Y10.55 E4.74858
G1 F430.9 X11.936 Y10.573 E4.80591
G1 F441.9 X11.28 Y10.595 E4.8618
G1 F453.8 X10.625 Y10.618 E4.91616
G1 F465.9 X9.969 Y10.64 E4.96917
G1 F478.8 X9.313 Y10.663 E5.02076
G1 F485.4 X8.563 Y10.715 E5.07905
G1 X8.563 Y12.216 E5.19543
G1 X9.313 Y12.268 E5.25372
G1 F478.8 X9.968 Y12.29 E5.30523
G1 F465.9 X10.624 Y12.313 E5.35825
G1 F453.8 X11.28 Y12.335 E5.41269
G1 F441.9 X11.935 Y12.358 E5.4685
G1 F430.9 X12.591 Y12.38 E5.52582
G1 F420.5 X13.247 Y12.403 E5.58457
G1 F450.1 X13.883 Y12.591 E5.64002
G1 F540.2 X14.519 Y12.78 E5.68625
G1 F600 X16.709 Y12.932 E5.82394
G1 X17.212 Y12.915 E5.85551
G0 F540 X17.252 Y12.914
G0 F3000 X17.896 Y12.034
G1 F554.8 X18.656 Y11.73 E5.91103
G1 X19.074 Y11.472 E5.94435
G1 X18.695 Y11.207 E5.97573
G1 X18.056 Y10.949 E6.02247
G1 X17.571 Y10.82 E6.05652
G1 F568.1 X17.076 Y10.743 E6.0897
G1 F596.3 X14.576 Y10.838 E6.24759
G1 F611.3 X13.396 Y11.466 E6.32988
G1 X14.575 Y12.093 E6.41209
G1 F596.3 X17.041 Y12.186 E6.56783
G1 F568.1 X17.896 Y12.034 E6.62536
G0 F3000 X18.263 Y13.447
G1 F600 X18.893 Y13.229 E6.66717
G1 X19.345 Y13.015 E6.69854
G1 X19.899 Y12.674 E6.73934
G1 X20.383 Y12.301 E6.77767
G1 X20.966 Y11.683 E6.83096
G1 X21.117 Y11.465 E6.84759
G1 X20.625 Y10.873 E6.89587
G1 X20.147 Y10.445 E6.93611
G1 X19.544 Y10.028 E6.9821
G1 X19.185 Y9.834 E7.00769
G1 X18.546 Y9.574 E7.05096
G1 X17.875 Y9.395 E7.09452
G1 X17.333 Y9.31 E7.12893
G1 X16.756 Y9.294 E7.16514
G1 X7.709 Y9.918 E7.73393
G1 X7.709 Y13.013 E7.92806
G1 X16.698 Y13.632 E8.49321
G1 X17.324 Y13.613 E8.53249
G1 X18.215 Y13.455 E8.58925
G0 F540 X18.263 Y13.447
G0 F3000 X17.931 Y14.242
G1 F600 X18.456 Y14.122 E8.62303
G1 X19.159 Y13.879 E8.66968
G1 X19.678 Y13.633 E8.7057
G1 X20.298 Y13.252 E8.75135
G1 X20.851 Y12.826 E8.79513
G1 X21.513 Y12.124 E8.85565
G1 X21.957 Y11.478 E8.90482
G1 X21.461 Y10.757 E8.95971
G1 X21.123 Y10.379 E8.99151
G1 X20.583 Y9.894 E9.03704
G1 X19.906 Y9.427 E9.08863
G1 X19.487 Y9.2 E9.11852
G1 X18.784 Y8.913 E9.16614
G1 X18.023 Y8.709 E9.21556
G1 X17.398 Y8.611 E9.25524
G1 X16.737 Y8.593 E9.29671
G1 X7.009 Y9.266 E9.90834
G1 X7.009 Y13.636 E10.18243
G1 X7.016 Y13.666 E10.18436
G1 X16.684 Y14.334 E10.79221
G1 X17.381 Y14.313 E10.83595
G1 X17.883 Y14.248 E10.8677
G0 F540 X17.931 Y14.242
G0 F3000 X18.054 Y14.932
G1 F600 X18.648 Y14.797 E10.9059
G1 X19.425 Y14.529 E10.95746
G1 X20.012 Y14.251 E10.9982
G1 X20.697 Y13.83 E11.04863
G1 X21.321 Y13.35 E11.09801
G1 X22.059 Y12.568 E11.16545
G1 X22.595 Y11.788 E11.22481
G1 X22.67 Y11.599 E11.23756
G1 X22.683 Y11.397 E11.25026
G1 X22.638 Y11.246 E11.26014
G1 X22.309 Y10.718 E11.29916
G1 X22 Y10.309 E11.33131
G1 X21.62 Y9.886 E11.36698
G1 X21.017 Y9.342 E11.41792
G1 X20.273 Y8.828 E11.47464
G1 X19.79 Y8.567 E11.50907
G1 X19.024 Y8.252 E11.56102
G1 X18.169 Y8.022 E11.61655
G1 X17.465 Y7.912 E11.66125
G1 X16.718 Y7.892 E11.70812
G1 X6.907 Y8.569 E12.32495
G1 X6.679 Y8.641 E12.33995
G1 X6.521 Y8.753 E12.35209
G1 X6.345 Y9.035 E12.37294
G1 X6.308 Y9.236 E12.38576
G1 X6.307 Y13.698 E12.66563
G1 X6.362 Y13.944 E12.68144
G1 X6.485 Y14.143 E12.69611
G1 X6.636 Y14.268 E12.70841
G1 X6.849 Y14.358 E12.72291
G1 X16.671 Y15.036 E13.34044
G1 X17.437 Y15.013 E13.38851
G1 X18.006 Y14.938 E13.4245
G0 F540 X18.054 Y14.932
G0 F3000 X17.598 Y12.42
;MESH:NONMESH
G0 F90 X17.598 Y12.42 Z2
G0 F3000 X17.235 Y12.186
;TIME_ELAPSED:49.295176
;LAYER:1
;TYPE:FILL
;MESH:3DBenchy.stl
G1 F553.6 X17.972 Y12.043 E13.47554
G1 X18.495 Y11.883 E13.51272
G1 X19.302 Y11.471 E13.57432
G1 X18.948 Y11.257 E13.60244
G1 X18.383 Y11.014 E13.64425
G1 X17.832 Y10.851 E13.68331
G1 X17.338 Y10.779 E13.71725
G1 F554 X16.546 Y10.756 E13.77108
G1 F566.9 X14.966 Y10.826 E13.87607
G1 F593.2 X13.789 Y11.462 E13.96095
G1 X14.966 Y12.098 E14.04584
G1 F567.3 X16.504 Y12.165 E14.14796
G1 F554.4 X17.235 Y12.186 E14.19761
G0 F3000 X17.309 Y12.94
G1 F600 X18.153 Y12.777 E14.25152
G1 X18.762 Y12.591 E14.29146
G1 X19.245 Y12.368 E14.32483
G1 X20.043 Y11.88 E14.3835
G1 X20.509 Y11.477 E14.42214
G1 X20.328 Y11.29 E14.43847
G1 X19.809 Y10.896 E14.47934
G1 X19.299 Y10.586 E14.51677
G1 X18.653 Y10.306 E14.56093
G1 X17.995 Y10.112 E14.60396
G1 X17.4 Y10.025 E14.64168
G1 X16.525 Y10.001 E14.69658
G1 X14.883 Y10.142 E14.79995
G1 F541.7 X14.251 Y10.338 E14.84592
G1 F453.2 X13.618 Y10.535 E14.90097
G1 F424.1 X13.096 Y10.557 E14.94733
G1 F434.8 X12.573 Y10.58 E14.99264
G1 F446 X12.051 Y10.603 E15.03673
G1 F457.7 X11.528 Y10.626 E15.07977
G1 F470.4 X11.006 Y10.649 E15.12157
G1 F483.6 X10.483 Y10.672 E15.16231
G1 F497.4 X9.961 Y10.695 E15.20184
G1 F512.1 X9.438 Y10.717 E15.24031
G1 F519.7 X8.75 Y10.778 E15.29033
G1 X8.75 Y12.155 E15.39005
G1 X9.436 Y12.214 E15.43991
G1 F512.1 X9.958 Y12.236 E15.4783
G1 F497.4 X10.481 Y12.258 E15.51791
G1 F483.6 X11.003 Y12.28 E15.55857
G1 F470.4 X11.526 Y12.302 E15.60044
G1 F457.7 X12.049 Y12.324 E15.64348
G1 F446 X12.571 Y12.346 E15.68757
G1 F434.8 X13.094 Y12.368 E15.73287
G1 F424.1 X13.617 Y12.39 E15.77932
G1 F418.9 X13.618 Y12.391 E15.77945
G1 F453.2 X14.25 Y12.586 E15.83437
G1 F541.7 X14.883 Y12.782 E15.88041
G1 F600 X16.446 Y12.917 E15.97881
G1 X17.26 Y12.939 E16.02988
G0 F540 X17.309 Y12.94
G0 F3000 X17.377 Y13.64
G1 F600 X18.323 Y13.459 E16.09029
G1 X19.008 Y13.249 E16.13523
G1 X19.558 Y12.997 E16.17318
G1 X20.033 Y12.729 E16.20738
G1 X20.47 Y12.438 E16.24032
G1 X21.047 Y11.945 E16.28792
G1 X21.453 Y11.475 E16.32687
G1 X21.256 Y11.235 E16.34635
G1 X20.799 Y10.766 E16.38742
G1 X20.208 Y10.316 E16.43401
G1 X19.488 Y9.883 E16.48671
G1 X18.72 Y9.594 E16.53818
G1 X18.148 Y9.426 E16.57557
G1 X17.466 Y9.326 E16.6188
G1 X16.503 Y9.299 E16.67923
G1 X7.949 Y10.043 E17.21778
G1 X7.949 Y12.891 E17.39642
G1 X16.411 Y13.618 E17.92913
G1 X17.328 Y13.639 E17.98666
G0 F540 X17.377 Y13.64
G0 F3000 X17.072 Y14.335
G1 F600 X17.644 Y14.302 E18.0226
G1 X18.493 Y14.141 E18.0768
G1 X19.255 Y13.907 E18.12679
G1 X19.875 Y13.623 E18.16957
G1 X20.402 Y13.325 E18.20754
G1 X20.894 Y12.997 E18.24463
G1 X21.542 Y12.442 E18.29814
G1 X22.058 Y11.847 E18.34754
G1 X22.341 Y11.456 E18.37782
G1 X21.814 Y10.804 E18.4304
G1 X21.269 Y10.243 E18.47946
G1 X20.604 Y9.735 E18.53195
G1 X19.953 Y9.344 E18.57958
G1 X19.457 Y9.12 E18.61371
G1 X18.942 Y8.928 E18.64819
G1 X18.3 Y8.74 E18.69015
G1 X17.538 Y8.629 E18.73844
G1 X16.984 Y8.596 E18.77325
G1 X16.471 Y8.599 E18.80543
G1 X7.249 Y9.4 E19.38603
G1 X7.249 Y13.535 E19.64539
G1 X16.374 Y14.319 E20.21984
G1 X17.023 Y14.334 E20.26056
G0 F540 X17.072 Y14.335
G0 F3000 X17.087 Y15.036
G1 F600 X17.731 Y14.999 E20.30102
G1 X18.662 Y14.824 E20.36044
G1 X19.503 Y14.565 E20.41563
G1 X20.195 Y14.247 E20.4634
G1 X20.768 Y13.923 E20.50469
G1 X21.318 Y13.556 E20.54616
G1 X22.035 Y12.941 E20.60541
G1 X22.606 Y12.286 E20.65991
G1 X22.956 Y11.801 E20.69742
G1 X23.165 Y11.468 E20.72208
G1 X22.798 Y10.906 E20.76418
G1 X22.341 Y10.34 E20.80981
G1 X21.737 Y9.718 E20.86419
G1 X21.001 Y9.155 E20.92231
G1 X20.28 Y8.723 E20.97503
G1 X19.722 Y8.47 E21.01346
G1 X19.161 Y8.261 E21.05101
G1 X18.451 Y8.054 E21.0974
G1 X17.61 Y7.931 E21.15071
G1 X17.005 Y7.895 E21.18872
G1 X16.439 Y7.899 E21.22423
G1 X6.581 Y8.753 E21.84486
G1 X6.547 Y8.773 E21.84733
G1 X6.552 Y14.178 E22.18635
G1 X16.335 Y15.02 E22.80223
G1 X17.038 Y15.035 E22.84633
G0 F540 X17.087 Y15.036
G0 F3000 X17.818 Y15.695
G1 F600 X18.833 Y15.506 E22.91109
G1 X19.752 Y15.221 E22.97144
G1 X20.513 Y14.872 E23.02395
G1 X21.136 Y14.52 E23.06883
G1 X21.741 Y14.116 E23.11446
G1 X22.527 Y13.441 E23.17945
G1 X23.155 Y12.721 E23.23937
G1 X23.534 Y12.199 E23.27983
G1 X23.837 Y11.716 E23.3156
G1 X23.886 Y11.575 E23.32496
G1 X23.886 Y11.359 E23.33851
G1 X23.814 Y11.178 E23.35072
G1 X23.365 Y10.49 E23.40225
G1 X22.868 Y9.875 E23.45185
G1 X22.207 Y9.195 E23.51133
G1 X21.397 Y8.574 E23.57535
G1 X20.606 Y8.101 E23.63316
G1 X19.987 Y7.82 E23.67579
G1 X19.379 Y7.593 E23.7165
G1 X18.603 Y7.368 E23.76718
G1 X17.682 Y7.233 E23.82556
G1 X17.024 Y7.194 E23.86691
G1 X16.406 Y7.199 E23.90567
G1 X6.358 Y8.068 E24.53826
G1 X6.131 Y8.187 E24.55433
G1 X5.993 Y8.323 E24.56649
G1 X5.881 Y8.536 E24.58158
G1 X5.847 Y8.728 E24.59381
G1 X5.847 Y14.203 E24.93722
G1 X5.859 Y14.269 E24.94142
G1 X5.993 Y14.609 E24.96434
G1 X6.092 Y14.712 E24.97331
G1 X6.349 Y14.862 E24.99197
G1 X16.298 Y15.721 E25.61832
G1 X17.103 Y15.737 E25.66882
G1 X17.77 Y15.697 E25.71073
G0 F540 X17.818 Y15.695
G0 F3000 X17.511 Y13.159
;MESH:NONMESH
G0 F90 X17.511 Y13.159 Z3
G0 F3000 X17.309 Y12.145
;TIME_ELAPSED:70.024790
;LAYER:2
;TYPE:FILL
;MESH:3DBenchy.stl
G1 F581.2 X17.875 Y12.068 E25.74771
G1 X18.371 Y11.938 E25.78091
G1 X18.866 Y11.76 E25.81497
G1 X19.485 Y11.467 E25.85932
G1 X18.801 Y11.126 E25.9088
G1 X18.152 Y10.924 E25.95281
G1 X17.491 Y10.813 E25.99621
G1 F577.8 X16.663 Y10.787 E26.05017
G1 F574 X9.857 Y11.468 E26.49866
G1 X16.695 Y12.152 E26.94926
G1 F577.4 X17.309 Y12.145 E26.98929
G0 F3000 X17.369 Y12.865
G1 F600 X18.018 Y12.778 E27.03036
G1 X18.603 Y12.624 E27.0683
G1 X19.147 Y12.427 E27.10459
G1 X19.731 Y12.15 E27.14513
G1 X20.272 Y11.8 E27.18554
G1 X20.701 Y11.467 E27.21961
G1 X20.237 Y11.105 E27.25652
G1 X19.805 Y10.821 E27.28895
G1 X19.064 Y10.449 E27.34095
G1 X18.32 Y10.22 E27.38978
G1 X17.575 Y10.095 E27.43716
G1 X16.642 Y10.056 E27.49573
G1 X8.891 Y10.829 E27.9843
G1 X8.891 Y12.105 E28.06434
G1 X16.67 Y12.883 E28.55469
G1 X17.32 Y12.866 E28.59547
G0 F540 X17.369 Y12.865
G0 F3000 X17.48 Y14.264
G1 F600 X18.289 Y14.155 E28.64667
G1 X19.021 Y13.964 E28.69412
G1 X19.685 Y13.725 E28.73839
G1 X20.412 Y13.381 E28.78883
G1 X21.087 Y12.94 E28.83941
G1 X21.512 Y12.63 E28.8724
G1 X22.066 Y12.103 E28.92036
G1 X22.638 Y11.472 E28.97378
G1 X22.006 Y10.756 E29.03368
G1 X21.539 Y10.338 E29.07299
G1 X21.064 Y9.972 E29.1106
G1 X20.505 Y9.604 E29.15258
G1 X19.926 Y9.315 E29.19317
G1 X19.423 Y9.095 E29.2276
G1 X18.672 Y8.858 E29.277
G1 X17.748 Y8.703 E29.33576
G1 X17.18 Y8.657 E29.37151
G1 X16.571 Y8.654 E29.4097
G1 X7.489 Y9.556 E29.98215
G1 X7.489 Y13.375 E30.22169
G1 X16.365 Y14.26 E30.78117
G1 X16.873 Y14.279 E30.81306
G1 X17.431 Y14.265 E30.84807
G0 F540 X17.48 Y14.264
G0 F3000 X18.196 Y14.874
G1 F600 X18.689 Y14.775 E30.87961
G1 X19.229 Y14.634 E30.91461
G1 X19.954 Y14.374 E30.96292
G1 X20.753 Y13.996 E31.01836
G1 X21.486 Y13.518 E31.07325
G1 X21.966 Y13.164 E31.11066
G1 X22.573 Y12.587 E31.16319
G1 X23.067 Y12.041 E31.20937
G1 X23.487 Y11.449 E31.2549
G1 X23.001 Y10.825 E31.30451
G1 X22.506 Y10.264 E31.35143
G1 X21.986 Y9.799 E31.39519
G1 X21.468 Y9.4 E31.4362
G1 X20.858 Y8.997 E31.48206
G1 X20.225 Y8.681 E31.52643
G1 X19.668 Y8.438 E31.56455
G1 X18.85 Y8.178 E31.61838
G1 X17.834 Y8.007 E31.68301
G1 X17.21 Y7.957 E31.72227
G1 X16.537 Y7.953 E31.76448
G1 X6.788 Y8.921 E32.37897
G1 X6.788 Y14.01 E32.69817
G1 X16.313 Y14.959 E33.29855
G1 X16.87 Y14.98 E33.33351
G1 X17.537 Y14.963 E33.37536
G1 X18.148 Y14.88 E33.41404
G0 F540 X18.196 Y14.874
G0 F3000 X18.312 Y15.565
G1 F600 X18.843 Y15.46 E33.44799
G1 X19.437 Y15.303 E33.48653
G1 X20.224 Y15.022 E33.53894
G1 X21.091 Y14.612 E33.5991
G1 X21.888 Y14.093 E33.65875
G1 X22.421 Y13.698 E33.70036
G1 X23.073 Y13.078 E33.75679
G1 X23.612 Y12.48 E33.80729
G1 X24.004 Y11.934 E33.84945
G1 X24.29 Y11.462 E33.88406
G1 X23.946 Y10.897 E33.92555
G1 X23.538 Y10.374 E33.96716
G1 X23.004 Y9.77 E34.01773
G1 X22.435 Y9.261 E34.06561
G1 X21.873 Y8.829 E34.11007
G1 X21.211 Y8.39 E34.15989
G1 X20.523 Y8.047 E34.20811
G1 X19.916 Y7.783 E34.24963
G1 X19.263 Y7.576 E34.2926
G1 X18.77 Y7.454 E34.32445
G1 X17.921 Y7.311 E34.37845
G1 X17.24 Y7.257 E34.4213
G1 X16.502 Y7.252 E34.46759
G1 X6.178 Y8.278 E35.11833
G1 X6.087 Y8.418 E35.1288
G1 X6.087 Y14.527 E35.51197
G1 X6.159 Y14.651 E35.52096
G1 X16.262 Y15.658 E36.15779
G1 X16.866 Y15.681 E36.1957
G1 X17.597 Y15.662 E36.24157
G1 X18.264 Y15.571 E36.28379
G0 F540 X18.312 Y15.565
G0 F3000 X18.214 Y14.925
G0 X20.495 Y15.67
G1 F600 X21.205 Y15.332 E36.33311
G1 X21.65 Y15.084 E36.36506
G1 X22.289 Y14.669 E36.41285
G1 X22.879 Y14.229 E36.45902
G1 X23.575 Y13.568 E36.51922
G1 X24.158 Y12.921 E36.57385
G1 X24.589 Y12.322 E36.62013
G1 X24.968 Y11.704 E36.66561
G1 X25.02 Y11.512 E36.67808
G1 X24.975 Y11.23 E36.69599
G1 X24.522 Y10.497 E36.75004
G1 X24.075 Y9.924 E36.79562
G1 X23.5 Y9.275 E36.85001
G1 X22.885 Y8.724 E36.9018
G1 X22.28 Y8.259 E36.94966
G1 X21.784 Y7.93 E36.98699
G1 X21.35 Y7.677 E37.0185
G1 X20.817 Y7.411 E37.05586
G1 X20.162 Y7.127 E37.10064
G1 X19.466 Y6.906 E37.14645
G1 X18.912 Y6.767 E37.18227
G1 X18.007 Y6.615 E37.23983
G1 X17.268 Y6.557 E37.28632
G1 X16.469 Y6.551 E37.33644
G1 X6.005 Y7.589 E37.99599
G1 X5.841 Y7.646 E38.00688
G1 X5.551 Y7.896 E38.03089
G1 X5.385 Y8.277 E38.05696
G1 X5.386 Y14.668 E38.45782
G1 X5.429 Y14.698 E38.46111
G1 X5.549 Y15.035 E38.48355
G1 X5.718 Y15.213 E38.49894
G1 X6.031 Y15.343 E38.5202
G1 X16.212 Y16.357 E39.16194
G1 X16.864 Y16.382 E39.20286
G1 X17.655 Y16.361 E39.25249
G1 X18.427 Y16.257 E39.30135
G1 X19 Y16.144 E39.33798
G1 X19.646 Y15.971 E39.37993
G1 X20.449 Y15.686 E39.43337
G0 F540 X20.495 Y15.67
G0 F3000 X19.982 Y14.422
G0 X19.416 Y13.076
G1 F600 X20.072 Y12.766 E39.47888
G1 X20.967 Y12.183 E39.54588
G1 X21.707 Y11.473 E39.6102
G1 X21.513 Y11.255 E39.62851
G1 X21.091 Y10.877 E39.66404
G1 X20.658 Y10.544 E39.6983
G1 X20.152 Y10.21 E39.73633
G1 X19.317 Y9.795 E39.79481
G1 X18.496 Y9.539 E39.84875
G1 X17.662 Y9.399 E39.9018
G1 X17.15 Y9.357 E39.93402
G1 X16.606 Y9.355 E39.96814
G1 X8.19 Y10.192 E40.49862
G1 X8.19 Y12.74 E40.65843
G1 X16.647 Y13.584 E41.19151
G1 X17.424 Y13.564 E41.24026
G1 X18.155 Y13.466 E41.28652
G1 X18.813 Y13.294 E41.32918
G1 X19.37 Y13.092 E41.36634
